**kern	**kern	**dynam
*part1	*part1	*part1
*staff2	*staff1	*
*I"Piano	*	*
*clefG2	*clefG2	*
*k[f#c#g#d#]	*k[f#c#g#d#]	*
=1	=1	=1
8e 8g#	8ee	.
8r	8r	.
8r	16r	ff
.	16G# 16B 16e	.
*clefF4	*	*
8EL	8G#L 8B 8e	.
8GG#	8G# 8B 8e	.
8BBJ	8G#J 8B 8e	.
=	=	=
[4.EE	[4.G# [4.B [4.e	.
4EE]	4G#] 4B] 4e]	.
=||	=||	=||
!	!LO:TX:b:B:t=To Harp	!
8r	8r	p
=	=	=
4EE 4E	8eL	.
.	8B	.
8r	8G#J	.
4EE 4E	8eL	.
.	8c#	.
8r	8AJ	.
=	=	=
4EE 4E	8eL	.
.	8B	.
8r	8G#J	.
4EE 4E	8eL	.
.	8B	.
8r	8G#J	.
=	=	=
4BBB 4BB	8d#L	.
.	8B	.
8r	8AJ	.
4BBB 4BB	8f#L	.
.	8B	.
8r	8AJ	.
=	=	=
4EE 4E	8eL	.
.	8B	.
8r	8G#J	.
4EE 4E	8eL	.
.	8B	.
8r	8G#J	.
=	=	=
*-	*-	*-
!!!system-decoration: {(s1,s2)}
